school/img/country/CL.svg

<svg width="13" height="12" viewBox="0 0 13 12" fill="none" xmlns="http://www.w3.org/2000/svg">
<rect x="0.25" y="0.25" width="12.5" height="11.5" rx="1.75" fill="white" stroke="#F5F5F5" stroke-width="0.5"/>
<mask id="mask0" mask-type="alpha" maskUnits="userSpaceOnUse" x="0" y="0" width="13" height="12">
<rect x="0.25" y="0.25" width="12.5" height="11.5" rx="1.75" fill="white" stroke="white" stroke-width="0.5"/>
</mask>
<g mask="url(#mask0)">
<path fill-rule="evenodd" clip-rule="evenodd" d="M0 12H13V5.60004H0V12Z" fill="#EA3B2E"/>
<rect width="4.33333" height="5.6" fill="#0B48C2"/>
<path fill-rule="evenodd" clip-rule="evenodd" d="M2.16668 3.42401L1.43895 4.09444L1.70746 2.99284L0.989186 2.30558L1.88287 2.29519L2.16668 1.20001L2.4505 2.29519L3.34418 2.30558L2.62591 2.99284L2.89442 4.09444L2.16668 3.42401Z" fill="white"/>
</g>
</svg>

<svg width="13" height="12" fill="none" xmlns="http://www.w3.org/2000/svg"><rect x=".25" y=".25" width="12.5" height="11.5" rx="1.75" fill="#fff" stroke="#F5F5F5" stroke-width=".5"/><mask id="a" maskUnits="userSpaceOnUse" x="0" y="0" width="13" height="12"><rect x=".25" y=".25" width="12.5" height="11.5" rx="1.75" fill="#fff" stroke="#fff" stroke-width=".5"/></mask><g mask="url(#a)"><path fill-rule="evenodd" clip-rule="evenodd" d="M0 12h13V5.6H0V12z" fill="#EA3B2E"/><path fill="#0B48C2" d="M0 0h4.333v5.6H0z"/><path fill-rule="evenodd" clip-rule="evenodd" d="M2.167 3.424l-.728.67.268-1.101-.718-.687.894-.01.284-1.096.284 1.095.893.01-.718.688.268 1.101-.727-.67z" fill="#fff"/></g></svg>
